fs/align_center_vertical_24_regular.svg

<svg viewBox="0 0 24 24" fill="none" xmlns="http://www.w3.org/2000/svg" height="1em" width="1em">
  <path d="M11.25 21.25V20H8.75C7.50736 20 6.5 18.9926 6.5 17.75V15.25C6.5 14.0074 7.50736 13 8.75 13H11.25V11H6.75C5.50736 11 4.5 9.99264 4.5 8.75V6.25C4.5 5.00736 5.50736 4 6.75 4H11.25V2.75C11.25 2.33579 11.5858 2 12 2C12.4142 2 12.75 2.33579 12.75 2.75V4H17.25C18.4926 4 19.5 5.00736 19.5 6.25V8.75C19.5 9.99264 18.4926 11 17.25 11H12.75V13H15.25C16.4926 13 17.5 14.0074 17.5 15.25V17.75C17.5 18.9926 16.4926 20 15.25 20H12.75V21.25C12.75 21.6642 12.4142 22 12 22C11.5858 22 11.25 21.6642 11.25 21.25ZM15.25 18.5C15.6642 18.5 16 18.1642 16 17.75V15.25C16 14.8358 15.6642 14.5 15.25 14.5H8.75C8.33579 14.5 8 14.8358 8 15.25V17.75C8 18.1642 8.33579 18.5 8.75 18.5H15.25ZM17.25 9.5C17.6642 9.5 18 9.16421 18 8.75V6.25C18 5.83579 17.6642 5.5 17.25 5.5H6.75C6.33579 5.5 6 5.83578 6 6.25V8.75C6 9.16421 6.33579 9.5 6.75 9.5L17.25 9.5Z" fill="#212121"/>
</svg>

<svg viewBox="0 0 24 24" fill="none" xmlns="http://www.w3.org/2000/svg" height="1em" width="1em">
  <path d="M11.25 21.25V20h-2.5a2.25 2.25 0 0 1-2.25-2.25v-2.5A2.25 2.25 0 0 1 8.75 13h2.5v-2h-4.5A2.25 2.25 0 0 1 4.5 8.75v-2.5A2.25 2.25 0 0 1 6.75 4h4.5V2.75a.75.75 0 0 1 1.5 0V4h4.5a2.25 2.25 0 0 1 2.25 2.25v2.5A2.25 2.25 0 0 1 17.25 11h-4.5v2h2.5a2.25 2.25 0 0 1 2.25 2.25v2.5A2.25 2.25 0 0 1 15.25 20h-2.5v1.25a.75.75 0 0 1-1.5 0Zm4-2.75a.75.75 0 0 0 .75-.75v-2.5a.75.75 0 0 0-.75-.75h-6.5a.75.75 0 0 0-.75.75v2.5c0 .414.336.75.75.75h6.5Zm2-9a.75.75 0 0 0 .75-.75v-2.5a.75.75 0 0 0-.75-.75H6.75a.75.75 0 0 0-.75.75v2.5c0 .414.336.75.75.75h10.5Z" fill="#212121"/>
</svg>
